X: 4212
T: FIELDS OF OLD ERIN
R: Jig
%R: jig
B: James Kerr "Merry Melodies" v.4 p.24 #212
Z: 2016 John Chambers <jc:trillian.mit.edu>
M: 6/8
L: 1/8
K: G
%%slurgraces yes
%%graceslurs yes
|:\
GAG BAG | BcB BAG | c2e d>cB |\
[1 cBc A2d :|[2 cAF G2d |:\
b2g gfg | def gfg |
a2g fef | def g3 :|\
{DEF}GBd edB | def gdB |\
[1 cBA BAG | ABG FED :|\
[2 c3 B3 | AEF G3 :|

%%sep 1 1 500
%%sep 1 1 500

